.source/svgs/share.svg

<svg xmlns="http://www.w3.org/2000/svg" xmlns:xlink="http://www.w3.org/1999/xlink" viewBox="0 0 24 21">
  <path fill="#000000" transform="translate(0 -1)" d="M12,4 L10,6 L2,6 L2,20 L22,20 L22,13 L24,11 L24,20 C24,21.1045695 23.1045695,22 22,22 L22,22 L2,22 C0.8954305,22 0,21.1045695 0,20 L0,20 L0,6 C0,4.8954305 0.8954305,4 2,4 L2,4 L12,4 Z M16,1 L23.1399123,7.24742331 C23.555549,7.61110536 23.5976665,8.24286798 23.2339844,8.65850461 C23.20475,8.69191538 23.1733231,8.72334227 23.1399123,8.75257669 L16,15 L16,10 C15.3333333,9.33333333 14.3333333,9.33333333 13,10 C11.6666667,10.6666667 9.66666667,12.3333333 7,15 C9,10.7345894 10.6666667,8.06792274 12,7 C13.3333333,5.93207726 14.6666667,5.26541059 16,5 L16,1 Z"/>
</svg>

<?xml version="1.0" encoding="UTF-8"?>
<svg viewBox="0 0 24 24" xmlns="http://www.w3.org/2000/svg" xmlns:xlink="http://www.w3.org/1999/xlink">
<defs>
<path id="a" d="M12 4l-2 2H2v14h20v-7l2-2v9a2 2 0 0 1-2 2H2a2 2 0 0 1-2-2V6a2 2 0 0 1 2-2h10zm4-3l7.14 6.247a1 1 0 0 1 0 1.506L16 15v-5c-.667-.667-1.667-.667-3 0s-3.333 2.333-6 5c2-4.265 3.667-6.932 5-8 1.333-1.068 2.667-1.735 4-2V1z"/>
</defs>
<g fill="none" fill-rule="evenodd">
<path d="M0 0h24v24H0z"/>
<mask id="b" fill="#fff">
<use xlink:href="#a"/>
</mask>
<use fill="#393939" fill-rule="nonzero" xlink:href="#a"/>
<g fill="#799189" fill-rule="nonzero" mask="url(#b)">
<path d="M0 0h24v24H0z"/>
</g>
</g>
</svg>
